icons/global/user-settings/my-account.svg

<svg width="24" height="24" viewBox="0 0 24 24" fill="none" xmlns="http://www.w3.org/2000/svg">
<path d="M16 7.99998C16 10.205 14.206 12 12 12C9.79495 12 7.99995 10.205 7.99995 7.99998C7.99995 5.79498 9.79395 3.99998 12 3.99998C14.206 3.99998 16 5.79498 16 7.99998ZM3.99995 19C3.99995 15.467 7.28995 13 12 13C16.711 13 20 15.467 20 19V20H3.99995V19Z" fill="black"/>
</svg>

<svg xmlns="http://www.w3.org/2000/svg" width="24" height="24" fill="none">
  <path fill="#000" d="M16 8c0 2.205-1.794 4-4 4-2.205 0-4-1.795-4-4s1.794-4 4-4 4 1.795 4 4ZM4 19c0-3.533 3.29-6 8-6 4.711 0 8 2.467 8 6v1H4v-1Z"/>
</svg>
